src/svg/ue917-frame.svg

<!-- Generated by IcoMoon.io -->
<svg version="1.1" xmlns="http://www.w3.org/2000/svg" width="32" height="32" viewBox="0 0 32 32">
<path d="M0 30c0 1.106 0.894 2 2 2h28c1.106 0 2-0.894 2-2v-19.63h-32v19.63zM20.311 14.325h9.397v14.336h-9.397v-14.336zM2.311 14.325h16v2h-16c0 0 0-2 0-2zM2.311 18.414h16v2h-16c0 0 0-2 0-2zM2.311 22.45h16v2h-16c0 0 0-2 0-2zM2.311 26.539h16v2h-16c0 0 0-2 0-2z"></path>
<path d="M32 2c0-1.106-0.894-2-2-2h-28c-1.106 0-2 0.894-2 2v6.37h32v-6.37zM22.29 6.434h-20v-4h20v4zM29.707 6.434h-6v-4h6v4z"></path>
</svg>

<svg xmlns="http://www.w3.org/2000/svg" width="32" height="32"><path d="M0 30c0 1.106.894 2 2 2h28c1.106 0 2-.894 2-2V10.37H0V30zm20.311-15.675h9.397v14.336h-9.397V14.325zm-18 0h16v2h-16v-2zm0 4.089h16v2h-16v-2zm0 4.036h16v2h-16v-2zm0 4.089h16v2h-16v-2zM32 2c0-1.106-.894-2-2-2H2C.894 0 0 .894 0 2v6.37h32V2zm-9.71 4.434h-20v-4h20v4zm7.417 0h-6v-4h6v4z"/></svg>
